X:1
T:Ave maris stella - Soriano
T:#
%%score [ 1 2 3 4 ]
L:1/8
Q:1/4=130
M:4/4
K:C
V:1 treble nm="Soprano" snm="S"
V:2 treble nm="Alto" snm="A"
V:3 treble nm="Tenor" snm="T"
V:4 bass nm="Bass" snm="B"
V:1
 z28 ||[Q:1/4=200][Q:1/4=200][Q:1/4=200][Q:1/4=200] A8 (A8 | G8 A8) | z4 D4 E4 (G4- | %4
w: |De- i||Ma- ter al\-|
 G4 ^F2 E2 F8) | G4 c4 A4 (d4- | d4 c4 B4 A2 G2 | A6 GF G2 F2 E2 D2 | E8) D8 | A16 | A8 B8 | c16 | %12
w: |ma, Ma- ter al\-|||* ma,|At-|que sem-|per|
 (F6 G2 A8- | A8) G8- | G8 z8 | z4 B4 d8 | z4 B4 d4 e4- | e4 d4 (d2 c2 c2 BA | B8) (c6 BA | %19
w: Vir\- * *|* go,||Fe- lix,|fe- lix coe\-|* li por\- * * * *|* ta, * *|
 G8)[Q:1/4=198] E4[Q:1/4=195] G4 |[Q:1/4=192] z4[Q:1/4=187] c8[Q:1/4=182] c4 | %21
w: * fe- lix,|fe- lix|
[Q:1/4=179] _B4[Q:1/4=177] G4[Q:1/4=172] A8 |[Q:1/4=170] A16 |] %23
w: coe- li por-|ta.|
V:2
 z28 || z16 | z8 A8 | (A8 G8 | A12) D4 | E4 (G8 F4 | E6 C2 D2 E2 F4- | F4 E6 D2 D4- | D4 ^C4) D8 | %9
w: ||De-|i *|* Ma-|ter al\- *|||* * ma,|
 F16 | E8 G8 | A8 (A8 | D8 E8 | F6 E2 D8) | E4 E4 (G6 A2 | B8) z4 B4 | d8 B4 c4- | c4 (B6 A2 A4- | %18
w: At-|que sem-|per Vir\-|||go, Fe- lix, *|* fe-|lix coe- li\-|* por\- * *|
 A4 ^G4) (A6 =GF | E8) z4 E4 | G4 A8 G4 | (G2 F2 E2 D2 E8) | ^F16 |] %23
w: * * ta, * *|* fe-|lix coe- li|por\- * * * *|ta.|
V:3
 z28 || z16 | z16 | z16 | D8 (D8 | C8 D8) | A,8 B,4 (D4- | D4 C4 _B,8) | A,8 z8 | D16 | C8 D8 | %11
w: ||||De- i||Ma- ter al\-||ma,|At-|que sem-|
 F8 (E4 F4- | F2 E2 D8 C4 | D2 C2 C8 B,4) | (C6 D2 E4) E4 | G16- | G8 z4 E4 | G8 D4 F4 | E8 A,8 | %19
w: per Vir\- *|||go, * * Fe-|lix,|* fe-|lix coe- li-|por- ta,|
 z4 E4 G8 | E4 F8 (E4- | E2 D2 D8 ^C4) | D16 |] %23
w: fe- lix|coe- li por\-||ta.|
V:4
"^Ave maris stella""^Francesco Soriano\n(1549-1621)" D,2 A,2 B,2 G,2 A,2 B,2 C2 D2 C2 B,2 A,2 G,2 A,4 || %1
w: A- ve * ma- ris * * stel\- * * * * la|
 z16 | z16 | z16 | z16 | z16 | z16 | z16 | z16 | D,16 | A,8 G,8 | (F,6 G,2 A,8) | (_B,8 A,6 G,2 | %13
w: ||||||||At-|que sem-|per * *|Vir\- * *|
 F,8 G,8) | C,8 C8 | G,16- | G,8 z8 | z16 | z8 z4 A,4 | C16 | z4 A,4 C8 | G,4 _B,4 A,8 | D,16 |] %23
w: |go, Fe-|lix,|||Fe-|lix,|fe- lix|coe- li por-|ta.|

